!!!SOCIAL_FUNCTION: songs connected with pastimes 
!!!SOCIAL_FUNCTION2: dance
!!!PDT:	1943
!!!LING_GROUP: Muskogean
!!!LANG: Non-Tone
Specific Region: Oklahoma, California, Mississippi, Louisiana, Texas, Alabama
!!!REG: Southeast
!!!COM: Anon.
!!!OTL: Pleasure Dance Song
!!!ODT: <1933//
!!!MPN: Lapintabeseihoke [Kills it Himself, Sidney Wesley]
!!!MLC: Philadelphia, Mississippi, United States of America
!! Song was recorded in January 1933.
!!!AGN: monody
!!!AMT: simple duple
!!!RWG: Transcribed pitches, durations, and meters are only approximate.
**kern	**recip	**silbe
*ICvox	*ICidio	*LChoctaw
*Imale	*Isticks	*
*clefF4	*	*
*k[b-e-]	*k[b-e-]	*
*M2/4	*M2/4	*
*MM69	*MM69	*
*[A,A]	*[A,A]	*[A,A]
*>A	*A>	*A>
=1-	=1-	=1-
8c	12	yo-
.	12r	.
16.B-	.	-bi-
.	12	.
32G	.	-hi-
4G	12	-ya
.	12r	.
.	12	.
=2	=2	=2
8G	12	yo-
.	12r	.
16.D	.	-bi-
.	12	.
32G	.	-hi-
4G	12	-ya
.	12r	.
.	12	.
=3	=3	=3
8c	12	yo-
.	12r	.
16.B-	.	-bi-
.	12	.
32G	.	-hi-
4G	12	-ya
.	12r	.
.	12	.
=4	=4	=4
8G	12	yo-
.	12r	.
16.D	.	-bi-
.	12	.
32G	.	-hi-
8G	12	-ya
.	12r	.
8r	.	.
.	12	.
=5	=5	=5
8c	12	yo-
.	12r	.
16.B-	.	-bi-
.	12	.
32e-	.	-hi-
4e-;	12	-ya
.	12r	.
.	12	.
=6	=6	=6
8d	12	yo-
.	12r	.
16.B-	.	-bi-
.	12	.
32G	.	-hi-
4G	12	-ya
.	12r	.
.	12	.
=7	=7	=7
8G	12	yo-
.	12r	.
16.D	.	-bi-
.	12	.
32G	.	-hi-
4G	12	-ya
.	12r	.
.	12	.
==:|!	==:|!	==:|!
*-	*-	*-
!!!CNT: Choctaw
!!!TXO: Choctaw
!!!OCY: United States
!!!OCL: Frances Densmore
!!!YOR: Frances Densmore, "Choctaw Music"
!!!YOR: Bulletin 136, page 176, No. 62
!!!PPR: Smithsonian Institution, Bureau of American Ethnology
!!!PPR: Government Printing Office
!!!PDT: 1943
!!!PPP: Washington, DC, United States of America
!!!YEC: Electronic Copyright 2000 David Huron
!!!YER: August 2000
!!!YEN: United States of America
!!!ENC: David Huron
!!!RDT: August 30, 2000
!!!EEV: Release 1.0
!!!AIN: sticks, vox
